public/arifolio2/1.svg

<svg fill="none" height="208" viewBox="0 0 600 208" width="600" xmlns="http://www.w3.org/2000/svg"><g stroke="#686868"><path d="m0 40.5 600 .0001"/><path d="m0 57.5 600 .0001"/><path d="m0 166h600"/><path d="m0 148.5h600"/><path d="m41.5 0v208"/><path d="m155.5 0v208"/><path d="m176.5 0v208"/><path d="m196.5 0v208"/><path d="m216.5 0v208"/><path d="m292.5 0v208"/><path d="m339.5 0v208"/><path d="m425.5 0v208"/><path d="m312.5 0v208"/><path d="m359.5 0v208"/><path d="m405.5 0v208"/><path d="m445.5 0v208"/><path d="m559.5 0v208"/></g><path d="m155.101 165.68-44.959-125.3404h-23.834l-44.9594 125.3404zm-29.973-20.08h-54.743l27.84-80.4084z" fill="#ddd"/><path d="m292.345 165.68h20.584v-125.1603h-20.584z" fill="#ddd"/><path d="m426.442 130.203c0-45.7422-66.446-28.094-66.446-56.3673 0-12.0658 9.208-17.8285 21.125-17.4684 13 .3602 20.403 8.1039 21.126 16.568h22.75c-1.805-21.4303-18.778-34.0364-42.792-34.0364-25.64 0-43.154 13.6866-43.154 35.6572 0 46.1019 66.626 26.4729 66.626 56.7269 0 10.625-8.125 18.369-22.57 18.369-14.264 0-21.486-8.284-22.389-18.549h-22.028c0 22.151 19.32 35.837 44.417 35.837 27.987 0 43.335-18.008 43.335-36.737z" fill="#ddd"/><path d="m243.082 77.9777c0 12.426-7.223 21.2502-23.292 21.2502h-3.521v22.4891l25.368 43.963h24.556l-31.056-51.865c21.126-5.223 29.07-21.0702 29.07-35.8373 0-20.3498-14.625-37.458-44.417-37.458h-43.335v125.1603h20.584v-108.4122h22.751c16.069 0 23.292 8.1039 23.292 20.7099z" fill="#ddd"/><path d="m558.895 165.68-44.959-125.3404h-23.834l-44.959 125.3404zm-29.973-20.08h-54.743l27.84-80.4085z" fill="#ddd"/></svg>

<svg width="600" height="208" viewBox="0 0 600 208" fill="none" xmlns="http://www.w3.org/2000/svg">
<line x1="4.45222e-08" y1="40.5" x2="600" y2="40.5001" stroke="#686868"/>
<line x1="4.45222e-08" y1="57.5" x2="600" y2="57.5001" stroke="#686868"/>
<line x1="-4.29321e-08" y1="166" x2="600" y2="166" stroke="#686868"/>
<line x1="-4.29321e-08" y1="148.5" x2="600" y2="148.5" stroke="#686868"/>
<line x1="41.5" y1="-1.09278e-08" x2="41.5" y2="208" stroke="#686868"/>
<line x1="155.5" y1="-1.09278e-08" x2="155.5" y2="208" stroke="#686868"/>
<line x1="176.5" y1="-1.57847e-08" x2="176.5" y2="208" stroke="#686868"/>
<line x1="196.5" y1="-1.57847e-08" x2="196.5" y2="208" stroke="#686868"/>
<line x1="216.5" y1="-1.09278e-08" x2="216.5" y2="208" stroke="#686868"/>
<line x1="292.5" y1="-1.09278e-08" x2="292.5" y2="208" stroke="#686868"/>
<line x1="339.5" y1="-1.09278e-08" x2="339.5" y2="208" stroke="#686868"/>
<line x1="425.5" y1="-1.24658e-08" x2="425.5" y2="208" stroke="#686868"/>
<line x1="312.5" y1="-1.09278e-08" x2="312.5" y2="208" stroke="#686868"/>
<line x1="359.5" y1="-1.09278e-08" x2="359.5" y2="208" stroke="#686868"/>
<line x1="405.5" y1="-1.24658e-08" x2="405.5" y2="208" stroke="#686868"/>
<line x1="445.5" y1="-1.09278e-08" x2="445.5" y2="208" stroke="#686868"/>
<line x1="559.5" y1="-1.09278e-08" x2="559.5" y2="208" stroke="#686868"/>
<path d="M155.101 165.68L110.142 40.3396H86.308L41.3486 165.68H155.101ZM125.128 145.6H70.385L98.225 65.1916L125.128 145.6Z" fill="#DDDDDD"/>
<path d="M292.345 165.68H312.929V40.5197H292.345V165.68Z" fill="#DDDDDD"/>
<path d="M426.442 130.203C426.442 84.4608 359.996 102.109 359.996 73.8357C359.996 61.7699 369.204 56.0072 381.121 56.3673C394.121 56.7275 401.524 64.4712 402.247 72.9353H424.997C423.192 51.505 406.219 38.8989 382.205 38.8989C356.565 38.8989 339.051 52.5855 339.051 74.5561C339.051 120.658 405.677 101.029 405.677 131.283C405.677 141.908 397.552 149.652 383.107 149.652C368.843 149.652 361.621 141.368 360.718 131.103H338.69C338.69 153.254 358.01 166.94 383.107 166.94C411.094 166.94 426.442 148.932 426.442 130.203Z" fill="#DDDDDD"/>
<path d="M243.082 77.9777C243.082 90.4037 235.859 99.2279 219.79 99.2279H216.269V121.717L241.637 165.68H266.193L235.137 113.815C256.263 108.592 264.207 92.7448 264.207 77.9777C264.207 57.6279 249.582 40.5197 219.79 40.5197H176.455V165.68H197.039V57.2678H219.79C235.859 57.2678 243.082 65.3717 243.082 77.9777Z" fill="#DDDDDD"/>
<path d="M558.895 165.68L513.936 40.3396H490.102L445.143 165.68H558.895ZM528.922 145.6H474.179L502.019 65.1915L528.922 145.6Z" fill="#DDDDDD"/>
</svg>
